build/security/FingerprintOutline.svg

<svg xmlns="http://www.w3.org/2000/svg" fill="none" viewBox="0 0 24 24" focusable="false"><path d="M0 0H24V24H0z"/><path fill="#74767B" fill-rule="evenodd" d="M4.89172 2.00012L5.691 2.00012C6.04998 2.00012 6.341 2.29114 6.341 2.65012C6.341 3.00911 6.04998 3.30012 5.691 3.30012L4.89172 3.30012C3.95284 3.30012 3.19172 4.06124 3.19172 5.00012L3.19172 5.69109C3.19172 6.05008 2.90071 6.34109 2.54172 6.34109C2.18274 6.34109 1.89172 6.05008 1.89172 5.69109L1.89172 5.00012C1.89172 3.34327 3.23487 2.00012 4.89172 2.00012ZM21.8917 5.6911C21.8917 6.05008 21.6007 6.34109 21.2417 6.34109C20.8827 6.34109 20.5917 6.05008 20.5917 5.6911L20.5917 5.00012C20.5917 4.06124 19.8306 3.30012 18.8917 3.30012L18.3089 3.30012C17.9499 3.30012 17.6589 3.00911 17.6589 2.65012C17.6589 2.29114 17.9499 2.00012 18.3089 2.00012L18.8917 2.00012C20.5486 2.00012 21.8917 3.34327 21.8917 5.00012L21.8917 5.6911ZM12 5.75282C10.4923 5.75282 9.1079 6.27338 8.01427 7.14507C6.54179 8.31875 5.59999 10.1256 5.59999 12.1528C5.59999 12.6082 5.64744 13.0517 5.73745 13.4791C5.74696 13.5243 5.75153 13.5693 5.75153 13.6137C5.75153 13.9145 5.54147 14.1846 5.23536 14.2491C4.88409 14.3231 4.53934 14.0983 4.46536 13.747C4.35691 13.2321 4.29999 12.6988 4.29999 12.1528C4.29999 9.71314 5.43536 7.53822 7.20399 6.12849C8.51952 5.07992 10.1874 4.45282 12 4.45282C14.0299 4.45282 15.8777 5.23919 17.2528 6.5227C17.39 6.65071 17.4593 6.82414 17.4593 6.99802C17.4593 7.15688 17.4014 7.3161 17.2845 7.4414C17.0395 7.70383 16.6282 7.71801 16.3658 7.47306C15.2218 6.40532 13.6878 5.75282 12 5.75282ZM11.35 8.03702C11.35 7.67804 11.641 7.38702 12 7.38702C14.2906 7.38702 16.2011 9.00749 16.6506 11.1641C16.6599 11.2089 16.6644 11.2535 16.6644 11.2974C16.6644 11.5988 16.4536 11.8692 16.1468 11.9331C15.7954 12.0063 15.4511 11.7808 15.3779 11.4293C15.0516 9.86328 13.6624 8.68702 12 8.68702C11.641 8.68702 11.35 8.39601 11.35 8.03702ZM10.316 8.76472C10.316 8.97067 10.2184 9.17325 10.0363 9.29948C9.1366 9.92319 8.5495 10.9613 8.5495 12.1375C8.5495 13.3064 8.44318 14.1343 8.19467 14.8504C7.94641 15.5657 7.57061 16.124 7.1231 16.7521C6.91479 17.0445 6.50891 17.1126 6.21655 16.9043C6.03856 16.7775 5.94367 16.5775 5.94367 16.3744C5.94367 16.2439 5.98286 16.1121 6.06435 15.9978C6.50746 15.3759 6.78455 14.9485 6.96653 14.4242C7.14824 13.9005 7.2495 13.2347 7.2495 12.1375C7.2495 10.5172 8.06043 9.08741 9.29563 8.2311C9.59065 8.02658 9.99562 8.09994 10.2001 8.39496C10.2784 8.50791 10.316 8.63696 10.316 8.76472ZM18.0727 8.51085C18.3961 8.35502 18.7846 8.49087 18.9404 8.81427C19.4274 9.825 19.7 10.958 19.7 12.1528C19.7 12.9923 19.6979 13.4459 19.4613 14.9514C19.4056 15.3061 19.073 15.5484 18.7183 15.4927C18.3979 15.4423 18.1691 15.1658 18.1691 14.8513C18.1691 14.8178 18.1717 14.7838 18.1771 14.7496C18.398 13.3439 18.4 12.9464 18.4 12.1953L18.4 12.1528C18.4 11.1575 18.1733 10.2171 17.7692 9.37857C17.7254 9.28761 17.7047 9.19151 17.7047 9.09688C17.7047 8.85505 17.8402 8.62285 18.0727 8.51085ZM12 11.2752C11.539 11.2752 11.1652 11.649 11.1652 12.11C11.1652 12.469 10.8742 12.76 10.5152 12.76C10.1562 12.76 9.8652 12.469 9.8652 12.11C9.8652 10.931 10.821 9.9752 12 9.9752C13.179 9.9752 14.1348 10.931 14.1348 12.11C14.1348 14.6293 13.7997 16.3801 12.4629 19.2147C12.3098 19.5394 11.9224 19.6785 11.5977 19.5254C11.3626 19.4145 11.2248 19.1808 11.2248 18.937C11.2248 18.8441 11.2448 18.7498 11.2871 18.6602C12.544 15.9948 12.8348 14.4331 12.8348 12.11C12.8348 11.649 12.4611 11.2752 12 11.2752ZM16.3438 13.022C16.7028 13.022 16.9939 13.3131 16.9939 13.6721C16.9939 14.9797 16.7668 16.1367 16.5413 16.9647C16.4283 17.3798 16.3148 17.7154 16.2286 17.9495C16.1855 18.0666 16.149 18.1586 16.1228 18.2227C16.1096 18.2548 16.099 18.2799 16.0914 18.2977L16.0822 18.319L16.0793 18.3255L16.0784 18.3276C15.9339 18.6517 15.543 18.8022 15.2188 18.6572C14.9772 18.5492 14.8339 18.3119 14.8339 18.0633C14.8339 17.9749 14.8521 17.8851 14.8904 17.7991L14.8912 17.7972L14.8963 17.7853C14.9013 17.7738 14.9092 17.7552 14.9195 17.7299C14.9403 17.6792 14.971 17.6017 15.0084 17.5001C15.0834 17.2966 15.1848 16.9972 15.2867 16.6231C15.491 15.8727 15.6936 14.8339 15.6936 13.6721C15.6936 13.3131 15.9847 13.022 16.3438 13.022ZM10.6502 13.661C10.9559 13.7259 11.1653 13.9958 11.1653 14.2962C11.1653 14.3409 11.1607 14.3863 11.151 14.4319C10.7045 16.5341 9.9182 17.7434 9.32067 18.5567C9.10813 18.846 8.7013 18.9082 8.412 18.6956C8.23863 18.5683 8.14681 18.3711 8.14681 18.1713C8.14681 18.0377 8.18786 17.9029 8.27303 17.787C8.8005 17.069 9.48294 16.0283 9.87938 14.1618C9.95396 13.8106 10.2991 13.5864 10.6502 13.661ZM1.89172 18.309C1.89172 17.95 2.18274 17.659 2.54172 17.659C2.90071 17.659 3.19172 17.95 3.19172 18.309L3.19172 19.0001C3.19172 19.939 3.95284 20.7001 4.89172 20.7001L5.691 20.7001C6.04998 20.7001 6.341 20.9911 6.341 21.3501C6.341 21.7091 6.04998 22.0001 5.691 22.0001L4.89172 22.0001C3.23487 22.0001 1.89172 20.657 1.89172 19.0001L1.89172 18.309ZM20.5917 18.309C20.5917 17.95 20.8827 17.659 21.2417 17.659C21.6007 17.659 21.8917 17.95 21.8917 18.309L21.8917 19.0001C21.8917 20.657 20.5486 22.0001 18.8917 22.0001L18.3089 22.0001C17.9499 22.0001 17.6589 21.7091 17.6589 21.3501C17.6589 20.9911 17.9499 20.7001 18.3089 20.7001L18.8917 20.7001C19.8306 20.7001 20.5917 19.939 20.5917 19.0001L20.5917 18.309Z"/></svg>

<svg xmlns="http://www.w3.org/2000/svg" fill="none" viewBox="0 0 24 24" focusable="false"><path fill="#74767B" fill-rule="evenodd" d="M4.89 2h.8c.35 0 .65.29.65.65 0 .35-.3.65-.65.65h-.8c-.94 0-1.7.76-1.7 1.7v.69c0 .36-.29.65-.65.65s-.65-.29-.65-.65V5c0-1.66 1.34-3 3-3m17 3.69c0 .36-.29.65-.65.65s-.65-.29-.65-.65V5c0-.94-.76-1.7-1.7-1.7h-.59c-.35 0-.65-.3-.65-.65 0-.36.3-.65.65-.65h.59c1.65 0 3 1.34 3 3zM12 5.75c-1.51 0-2.9.52-3.99 1.39a6.4 6.4 0 0 0-2.28 6.33c.01.05.02.09.02.14 0 .3-.21.57-.52.63-.35.08-.7-.15-.77-.5a7.6 7.6 0 0 1-.16-1.59 7.69 7.69 0 0 1 2.9-6.03A7.64 7.64 0 0 1 12 4.45c2.02 0 3.87.78 5.25 2.07.14.13.2.3.2.47 0 .16-.05.32-.17.45-.25.26-.66.27-.92.03A6.36 6.36 0 0 0 12 5.75m-.65 2.28c0-.36.29-.65.65-.65 2.29 0 4.2 1.62 4.65 3.78 0 .04.01.09.01.13 0 .3-.21.57-.52.64a.655.655 0 0 1-.77-.51A3.444 3.444 0 0 0 12 8.68c-.36 0-.65-.29-.65-.65m-1.04.73c0 .21-.1.41-.28.53-.9.63-1.49 1.67-1.49 2.84s-.1 2-.35 2.72c-.25.71-.62 1.27-1.07 1.9a.65.65 0 0 1-1.18-.38c0-.13.04-.26.12-.38.44-.62.72-1.05.9-1.57s.28-1.19.28-2.29c0-1.62.82-3.05 2.05-3.9.3-.21.7-.14.91.16.07.11.11.24.11.37m7.76-.25c.32-.16.71-.02.87.3.48 1.01.76 2.14.76 3.34 0 .84-.01 1.29-.24 2.8-.06.35-.39.59-.75.54a.65.65 0 0 1-.55-.64c0-.04.01-.07.01-.11.22-1.4.23-1.8.23-2.55v-.04c0-1-.23-1.94-.64-2.78a.647.647 0 0 1 .31-.86M12 11.27c-.47 0-.84.37-.84.84 0 .35-.29.65-.65.65s-.65-.3-.65-.65c0-1.18.96-2.14 2.14-2.14 1.17 0 2.13.96 2.13 2.14 0 2.51-.34 4.27-1.67 7.1-.16.32-.54.46-.87.31a.65.65 0 0 1-.31-.86c1.26-2.67 1.55-4.23 1.55-6.55a.83.83 0 0 0-.83-.84m4.34 1.75c.36 0 .65.29.65.65 0 1.3-.23 2.46-.45 3.29-.12.41-.23.75-.32.98-.04.12-.08.21-.1.28-.02.03-.03.05-.03.07l-.01.02-.01.01c-.14.33-.53.48-.86.33a.643.643 0 0 1-.32-.86v-.01c.01-.01.01-.03.02-.06.03-.05.06-.12.09-.22.08-.21.18-.51.28-.88.21-.75.41-1.79.41-2.95 0-.36.29-.65.65-.65m-5.69.64c.3.06.51.33.51.63 0 .05 0 .09-.01.14-.45 2.1-1.24 3.31-1.83 4.12-.22.29-.62.35-.91.14a.63.63 0 0 1-.27-.52c0-.14.04-.27.13-.39.53-.72 1.21-1.76 1.6-3.62.08-.35.42-.58.78-.5M1.89 18.3c0-.35.29-.65.65-.65s.65.3.65.65v.7c0 .93.76 1.7 1.7 1.7h.8c.35 0 .65.29.65.65 0 .35-.3.65-.65.65h-.8c-1.66 0-3-1.35-3-3zm18.7 0c0-.35.29-.65.65-.65s.65.3.65.65v.7c0 1.65-1.35 3-3 3h-.59c-.35 0-.65-.3-.65-.65 0-.36.3-.65.65-.65h.59c.94 0 1.7-.77 1.7-1.7z"/></svg>
